X:1
T:La Casa di Vronovsky 
F:http://simonwascher.info/
Z:abc transcription Christof Zeiler
M:2/4
L:1/16
K:C
AGAB c2 A2 | BABc d4 | e2 dc B2d2 |1 cdcB c2 A2 :|\
                                  [2 cdcB A4 ||
A2 ce d2 B2 | G^FGA D4 | E2 (3DCB, A,2 EF | GABG cBA^G |
A2 ce d2 B2 | G^FGA =F4 | fedc BDGB | dcBc A4 ||
%T:La Casa di Vronovsky - Sessionversion
M:2/4
L:1/16
K:C
AGAB c2 A2 | BABc d4 | e2 dc B2d2 | cdcB c2 A2 |
AGAB c2 A2 | BABc d4 | e2 dc B2d2 | cdcB A4 :|\
|:\
A2 ce d2 B2 | G^FGA =F4 | fedc BDGB | dcBc A4 :|
%%wordsfont Times-Italic 11pt
W:aus Simon Waschers TradArchiv
